src/main/resources/icons/CidrDebuggerIcons/icons/valueMuted.svg

<svg xmlns="http://www.w3.org/2000/svg" width="16" height="16" viewBox="0 0 16 16">
  <path fill="#9AA7B0" fill-opacity=".8" fill-rule="evenodd" d="M13,3.44000067 L13,5 L11.4400007,5 L10.4400007,6 L13,6 L13,9 L7.44000067,9 L6.44000067,10 L13,10 L13,13 L3.44000067,13 L1.886667,14.5533337 L0.946667,13.6133337 L14.1133337,0.446667 L15.0533337,1.386667 L13,3.44000067 Z M10.6589181,2 L7.65891806,5 L3,5 L3,2 L10.6589181,2 Z M6.65891806,6 L3.65891806,9 L3,9 L3,6 L6.65891806,6 Z"/>
</svg>

<svg xmlns="http://www.w3.org/2000/svg" width="16" height="16" viewBox="0 0 16 16"><rect id="frame" width="16" height="16" fill="none"/><path fill="#9AA7B0" fill-opacity=".8" fill-rule="evenodd" d="M13 3.44V5h-1.56l-1 1H13v3H7.44l-1 1H13v3H3.44l-1.553 1.553-.94-.94L14.113.447l.94.94L13 3.44zM10.659 2l-3 3H3V2h7.659zm-4 4l-3 3H3V6h3.659z"/></svg>
